X:1
T:Title
%%score [ 1 2 3 4 ]
L:1/8
Q:1/4=120
M:none
K:F
V:1 treble nm="MusicXML Part"
V:2 treble-8 nm="MusicXML Part"
V:3 treble-8 nm="MusicXML Part"
V:4 bass nm="MusicXML Part"
V:1
"^Psalm 2" G8 D4 F4 G4 B2 c2"^Der gesetzte Takt ist nur eine Notlösung, damit Capella läuft. \nDie Zahlen 1 bis 8 geben die ursprünglichen acht Takte an." d4 B4"^Claude Le Jeune (ca.1530-1600)" A4 G4 ^F8 z8 | %1
w: Pour- quoy font bruit et * s'as- sem- blent les gens?|
"^2" G8 A4 c4 B4 A4 G4 F4 E4 D4 ^F8 G8 z8 |"^3" G8 x48 | D4 F4 G4 B2 c2 d4 B4 A4 G4 ^F8 z8 x32 | %4
w: Quel- le fo- lie à mur- mu- rer les mei- ne?|Pour-|quoy sont tant les * peu- ples di- li- gens|
"^4" G8 G4 A4 B8 A8 c4 B4 A4 B8 G8 ^F4 G8 z8 |"^5" d8 c4 B4 A8 G8 A4 G4 G4 G4 F8 E8 z8 | %6
w: A met- tre sus une en- tre- pri- se vai * ne?|Ban- dez se sont les grands roys de la ter- re,|
"^6" D8 G4 A4 B8 c8 A4 B4 A4 A4 ^F8 z8 x8 |"^7" d8 c4 B4 A8 G8 A4 G4 G4 G4 F8 E8 z8 | %8
w: Et les pri- mats ont bien tant pré- su- mé,|De con- spi- rer et vou- loir fai- re guer- re,|
"^8" D8 G4 A4 B8 uc8 A4 G4 G8 ^F8 G16 |] %9
w: Tous con- tre Dieu, et son Roy bien ai- mé.|
V:2
 d8 d4 d4 B2 c2 d4 f4 f4 f4 d4 d8 z8 | d8 d4 e4 f4 f4 d4 d4 c4 d4 d8 =B8 z8 | %2
w: Pour- quoy font bruit * et s'as- sem- blent les gens?|Quel- le fo- lie à mur- mu- rer les mei- ne?|
 d8 d4 d4 B2- c2 d4 f4 f4 f4 d4 d8 z8 | d8 d4 f4 f8 d8 g4 f8 d8 c4 d8 =B8 z8 | %4
w: Pour- quoy sont tant * les peu- ples di- li- gens|A met- tre sus une en- tre- pri- se vai- ne?|
 B8 _e4 d4 d2 =e2 f4 B8 c4 c4 B4 G4 A4 =B4 c8 z8 x8 | B8 d4 f8 g4 a8 f4 d4 d4 ^c4 A8 z8 x8 | %6
w: Ban- dez se sont * * les grands roys de la ter * re,|Et les pri- mats ont bien tant pré- su- mé,|
 d8 _e4 d4 d2 =e2 f4 B8 c4 c4 B4 G4 A4 =B4 c8 z8 | d8 d4 f4 f12 ue4 f4 d4 _e8 d8 =B16 | z72 |] %9
w: De con- spi- rer * * et vou- loir fai- re guer * re,|Tous con- tre Dieu, et son Roy bien ai- mé.||
V:3
 G8 B4 A4 G4 F4 B4 d4 c4 B4 A8 z8 | B8 A4 G4 d4 c4 B4 A4 G4 B4 A8 G8 z8 | %2
w: Pour- quoy font bruit et s'as- sem- blent les gens?|Quel- le fo- lie à mur- mu- rer les mei- ne?|
 G8 B4 A4 G4 F4 B4 d4 c4 B4 A8 z8 | G8 B4 c4 d8 f8 e4 d4 c4 B4 G8 A8 G8 z8 | %4
w: Pour- quoy sont tant les peu- ples di- li- gens|A met- tre sus une en- tre- pri- se vai * ne?|
 g8 g4 g4 f8 d8 f4 e4 d4 c4 d8 G8 z8 x8 | G8 B4 c4 d8 e8 f4 g4 f4 e4 d8 z8 x8 | %6
w: Ban- dez se sont les grands roys de la ter- re,|Et les pri- mats ont bien tant pré- su- mé,|
 g8 g4 g4 f8 d8 f4 e4 d4 c4 d8 G8 z8 | G8 B4 c4 d8 uc8 c4 B4 c8 A8 G16 | z72 |] %9
w: De con- spi- rer et vou- loir fai- re guer- re,|Tous con- tre Dieu, et son Roy bien ai- mé.||
V:4
 G,8 G,4 D,4 _E,4 B,,4 B,,4 [B,,B,]4 F,4 G,4 D,8 z8 | %1
 G,8 F,4 E,4 D,4 F,4 G,4 D,4 E,4 G,4 D,8 [G,,G,]8 z8 | %2
 G,8 G,4 D,4 _E,4 B,,4 B,,4 [B,,B,]4 F,4 G,4 D,8 z8 | %3
 B,8 G,4 F,4 B,,8 D,8 C,4 D,4 F,4 G,4 _E,8 D,8 [G,,G,]8 z8 | %4
 G,8 C4 G,4 D8 G,8 F,4 C,4 G,4 _E,4 D,8 C,8 z8 x8 | G,8 G,4 F,4 B,8 A,8 D4 G,4 A,4 A,4 D,8 z8 x8 | %6
 =B,8 C4 G,4 D8 G,8 F,4 C,4 G,4 _E,4 D,8 C,8 z8 | %7
 G,8 G,4 F,4 B,8 uA,8 F,4 G,4 C,8"^Psalm 2  -  Seite 2" D,8 [G,,G,]16 | z72 |] %9

